X: 38433
T: Starry Night For A Ramble
R: waltz
M: 3/4
K: Cmajor
G2F2|:"C"E4 G2|c2 G2 E2|"F"F6|A6|"G"G4 c2|d3 cd2|"C"e6-|e4d2|
"C"e3 dcB|c2 G2 E2|"F"F6|A4 B2|"G"G4 c2|d3 ed2|"C"c6-|c2 d2e2|
"F"f3 gf2|f2 e2 d2|"C"e3 fe2|e2 d2 c2|"G"d3 ed2|B2 A2 G2|"G"g6-|g2 G2F2|
"C"E4 G2|c2 G2 E2|"F"F6|A4 A2|"G"G4 c2|d3 ed2|"C"c6|1 c2 G2F2:|2 c6||

